X: 1
T: Eklundapolska #1
T: Myggbiten
C: Viksta Lasse (Leonard Larsson)
S: Dala Spelmanslag
R: Bingsj\"opolska, 16th-note polska
F: http://www.v-dalaspelmanslag.se/pdf/vdala025.pdf
Z: 2006 John Chambers <jc@trillian.mit.edu>
M: 3/4
L: 1/16
K: Dm
|: D2a2 a2ga baga | A2a2  baga baga \
|  A2ag fefg a2f2 | e2ed ^cdec A4   \
|  D2a2 a2ga baga | A2a2  baga baga |
|  A2ag fefg afed |^cdec  d8       :|\
|: a2ab a2ab a2a2 | g2gb  g2gb g2g2 \
|  f2fa f2fa f2f2 | e2ed ^cdec A4  :|
|: A3d ^cdec d2e  | f2f2  efge f4   \
|  A3d ^cdec d4   | A2cA  G2G2 A4   \
|  A2cA G2G2 F2F2 | E2E2  D8       :|
